icons/op-faq-24.svg

<svg width="24" height="24" viewBox="0 0 24 24" fill="none" xmlns="http://www.w3.org/2000/svg">
<path d="M8.01633 14.2188V11.625C5.73061 11.3125 4 9.71875 4 7.84375C4 5.71875 6.1551 4 8.8 4H12C14.6776 4 16.8327 5.71875 16.8327 7.84375C16.8327 9.875 14.8082 11.5625 12.2939 11.6562L8.01633 14.2188ZM8.8 5.28125C7.03673 5.28125 5.6 6.4375 5.6 7.84375C5.6 9.25 7.03673 10.4062 8.8 10.4062H9.61633V11.6562L11.7388 10.4062H12C13.7959 10.4062 15.2327 9.25 15.2327 7.84375C15.2327 6.4375 13.7959 5.28125 12 5.28125H8.8ZM14.0245 18.1562C12.2286 18.0625 10.7592 16.875 10.7592 15.4062C10.7592 13.875 12.3265 12.625 14.2204 12.625H16.5388C18.4653 12.625 20 13.875 20 15.4062C20 16.75 18.7592 17.9062 17.1265 18.125V20L14.0245 18.1562ZM14.2204 13.5625C12.9469 13.5625 11.9347 14.375 11.9347 15.4062C11.9347 16.4062 12.9469 17.2188 14.2204 17.2188H14.4163L15.9837 18.1562V17.2188H16.5388C17.8122 17.2188 18.8571 16.4062 18.8571 15.4062C18.8571 14.375 17.8122 13.5625 16.5388 13.5625H14.2204ZM9.32245 6.0625C9.71429 5.84375 10.1388 5.75 10.5959 5.75C10.9878 5.75 11.2816 5.84375 11.5102 6C11.7714 6.1875 11.8694 6.4375 11.8694 6.75C11.8694 6.90625 11.8367 7.03125 11.8041 7.125C11.7714 7.25 11.7061 7.34375 11.6082 7.4375C11.5102 7.53125 11.3469 7.65625 11.1184 7.84375C10.9551 7.96875 10.8245 8.09375 10.7592 8.15625C10.6939 8.25 10.6612 8.375 10.6612 8.53125V8.65625H10.1061V8.46875C10.1061 8.28125 10.1388 8.09375 10.2041 7.96875C10.302 7.84375 10.4327 7.6875 10.6286 7.53125C10.8571 7.375 11.0204 7.21875 11.0857 7.125C11.151 7.03125 11.1837 6.90625 11.1837 6.78125C11.1837 6.625 11.1184 6.5 11.0204 6.40625C10.8898 6.34375 10.7592 6.28125 10.5306 6.28125C10.3673 6.28125 10.1714 6.3125 10.0408 6.375C9.87755 6.40625 9.71429 6.46875 9.55102 6.5625L9.32245 6.0625ZM9.97551 9.5625C9.97551 9.28125 10.1388 9.125 10.4 9.125C10.5633 9.125 10.6612 9.15625 10.7265 9.25C10.7918 9.3125 10.8571 9.40625 10.8571 9.5625C10.8571 9.6875 10.7918 9.78125 10.7265 9.875C10.6612 9.9375 10.5633 10 10.4 10C10.2694 10 10.1714 9.9375 10.1061 9.875C10.0082 9.8125 9.97551 9.6875 9.97551 9.5625ZM15.0041 16.375C15.0041 16.2812 15.0367 16.2188 15.102 16.1562C15.1347 16.125 15.2327 16.0938 15.3306 16.0938C15.4286 16.0938 15.4939 16.125 15.5592 16.1562C15.5918 16.2188 15.6245 16.2812 15.6245 16.375C15.6245 16.4688 15.5918 16.5312 15.5592 16.5938C15.4939 16.625 15.4286 16.6562 15.3306 16.6562C15.2327 16.6562 15.1347 16.625 15.102 16.5938C15.0367 16.5312 15.0041 16.4688 15.0041 16.375ZM15.0041 14.1562H15.6245L15.5265 15.8125H15.102L15.0041 14.1562Z" fill="black"/>
</svg>

<svg xmlns="http://www.w3.org/2000/svg" width="24" height="24" viewBox="0 0 24 24"><path d="M8.016 14.219v-2.594C5.731 11.312 4 9.719 4 7.844 4 5.719 6.155 4 8.8 4H12c2.678 0 4.833 1.719 4.833 3.844 0 2.031-2.025 3.718-4.539 3.812l-4.278 2.563ZM8.8 5.281c-1.763 0-3.2 1.157-3.2 2.563 0 1.406 1.437 2.562 3.2 2.562h.816v1.25l2.123-1.25H12c1.796 0 3.233-1.156 3.233-2.562S13.796 5.281 12 5.281H8.8Zm5.224 12.875c-1.795-.094-3.265-1.281-3.265-2.75 0-1.531 1.567-2.781 3.461-2.781h2.319c1.926 0 3.461 1.25 3.461 2.781 0 1.344-1.241 2.5-2.873 2.719V20l-3.103-1.844Zm.196-4.594c-1.273 0-2.285.813-2.285 1.844 0 1 1.012 1.813 2.285 1.813h.196l1.568.937v-.937h.555c1.273 0 2.318-.813 2.318-1.813 0-1.031-1.045-1.844-2.318-1.844H14.22Zm-4.898-7.5a2.567 2.567 0 0 1 1.274-.312c.392 0 .686.094.914.25.261.188.359.438.359.75 0 .156-.032.281-.065.375a.649.649 0 0 1-.196.313c-.098.093-.261.218-.49.406-.163.125-.293.25-.359.312a.648.648 0 0 0-.098.375v.125h-.555v-.187c0-.188.033-.375.098-.5a2.56 2.56 0 0 1 .425-.438c.228-.156.391-.312.457-.406a.614.614 0 0 0 .098-.344.508.508 0 0 0-.164-.375c-.13-.062-.261-.125-.489-.125-.164 0-.36.031-.49.094a1.592 1.592 0 0 0-.49.187l-.229-.5Zm.654 3.5c0-.281.163-.437.424-.437.163 0 .261.031.326.125a.404.404 0 0 1 .131.312c0 .126-.065.219-.131.313A.442.442 0 0 1 10.4 10a.419.419 0 0 1-.294-.125c-.098-.063-.13-.187-.13-.313Zm5.028 6.813a.28.28 0 0 1 .098-.219c.033-.031.131-.062.229-.062s.163.031.228.062a.436.436 0 0 1 .065.219.436.436 0 0 1-.065.219c-.065.031-.13.062-.228.062s-.196-.031-.229-.062a.28.28 0 0 1-.098-.219Zm0-2.219h.62l-.097 1.656h-.425l-.098-1.656Z"/></svg>
